packages/icons/assets/ReplicaSet.svg

<svg xmlns="http://www.w3.org/2000/svg" fill="none" viewBox="0 0 16 16"><path fill="#414141" d="M16 0H0v16h16V0z" opacity=".01"/><path fill="#414141" d="M4.44 16L0 10.29l1.584-7.12099L8 0l6.415 3.16901L16 10.29 11.56 16H4.44zM2.38699 3.77299L1 10l3.884 5h6.231L15 10l-1.387-6.231L8 1 2.38699 3.77299zM11 12H3V7h8v5zm-7-1h6V8H4v3zm8-1V9h1v1h-1zm0-2V7h1v1h-1zm0-2V5h1v1h-1zm-2 0V5h1v1h-1zM8 6V5h1v1H8zM6 6V5h1v1H6zM4 6V5h1v1H4z"/></svg>

<svg width="16" height="16" viewBox="0 0 16 16" fill="none" xmlns="http://www.w3.org/2000/svg">
<path opacity="0.01" d="M16 0H0V16H16V0Z" fill="#414141"/>
<path d="M4.44 16L0 10.29L1.584 3.16901L8 0L14.415 3.16901L16 10.29L11.56 16H4.44ZM2.38699 3.77299L1 10L4.884 15H11.115L15 10L13.613 3.769L8 1L2.38699 3.77299ZM11 12H3V7H11V12ZM4 11H10V8H4V11ZM12 10V9H13V10H12ZM12 8V7H13V8H12ZM12 6V5H13V6H12ZM10 6V5H11V6H10ZM8 6V5H9V6H8ZM6 6V5H7V6H6ZM4 6V5H5V6H4Z" fill="#414141"/>
</svg>
